images/tags-icons/scissors-icon.svg

<svg width="21" height="20" viewBox="0 0 21 20" fill="none" xmlns="http://www.w3.org/2000/svg">
<path d="M8 4C8 3.20888 7.76541 2.43552 7.32588 1.77772C6.88635 1.11992 6.26164 0.607234 5.53074 0.304484C4.79983 0.00173312 3.99556 -0.0774802 3.21964 0.0768607C2.44372 0.231202 1.73098 0.612165 1.17157 1.17157C0.612165 1.73098 0.231202 2.44372 0.0768607 3.21964C-0.0774802 3.99556 0.00173312 4.79983 0.304484 5.53074C0.607234 6.26164 1.11992 6.88635 1.77772 7.32588C2.43552 7.76541 3.20888 8 4 8C4.56063 8.02262 5.11597 7.88378 5.6 7.6L8 10L5.6 12.4C5.11597 12.1162 4.56063 11.9774 4 12C3.20888 12 2.43552 12.2346 1.77772 12.6741C1.11992 13.1136 0.607234 13.7384 0.304484 14.4693C0.00173312 15.2002 -0.0774802 16.0044 0.0768607 16.7804C0.231202 17.5563 0.612165 18.269 1.17157 18.8284C1.73098 19.3878 2.44372 19.7688 3.21964 19.9231C3.99556 20.0775 4.79983 19.9983 5.53074 19.6955C6.26164 19.3928 6.88635 18.8801 7.32588 18.2223C7.76541 17.5645 8 16.7911 8 16C8.02262 15.4394 7.88378 14.884 7.6 14.4L10 12L17 19H21L7.6 5.6C7.88378 5.11597 8.02262 4.56063 8 4ZM4 6C3.60444 6 3.21776 5.8827 2.88886 5.66294C2.55996 5.44318 2.30362 5.13082 2.15224 4.76537C2.00087 4.39992 1.96126 3.99778 2.03843 3.60982C2.1156 3.22186 2.30608 2.86549 2.58579 2.58579C2.86549 2.30608 3.22186 2.1156 3.60982 2.03843C3.99778 1.96126 4.39992 2.00087 4.76537 2.15224C5.13082 2.30362 5.44318 2.55996 5.66294 2.88886C5.8827 3.21776 6 3.60444 6 4C6 4.53044 5.78929 5.03914 5.41422 5.41422C5.03914 5.78929 4.53044 6 4 6ZM4 18C3.60444 18 3.21776 17.8827 2.88886 17.6629C2.55996 17.4432 2.30362 17.1308 2.15224 16.7654C2.00087 16.3999 1.96126 15.9978 2.03843 15.6098C2.1156 15.2219 2.30608 14.8655 2.58579 14.5858C2.86549 14.3061 3.22186 14.1156 3.60982 14.0384C3.99778 13.9613 4.39992 14.0009 4.76537 14.1522C5.13082 14.3036 5.44318 14.56 5.66294 14.8889C5.8827 15.2178 6 15.6044 6 16C6 16.5304 5.78929 17.0391 5.41422 17.4142C5.03914 17.7893 4.53044 18 4 18ZM10 9.5C10.0989 9.5 10.1956 9.52933 10.2778 9.58427C10.36 9.63921 10.4241 9.7173 10.4619 9.80866C10.4998 9.90002 10.5097 10.0006 10.4904 10.0975C10.4711 10.1945 10.4235 10.2836 10.3536 10.3536C10.2836 10.4235 10.1945 10.4711 10.0975 10.4904C10.0006 10.5097 9.90002 10.4998 9.80866 10.4619C9.7173 10.4241 9.63921 10.36 9.58427 10.2778C9.52933 10.1956 9.5 10.0989 9.5 10C9.49558 9.9332 9.50549 9.86622 9.52905 9.80355C9.55262 9.74089 9.5893 9.68398 9.63664 9.63664C9.68398 9.5893 9.74089 9.55262 9.80355 9.52905C9.86622 9.50549 9.9332 9.49558 10 9.5ZM21 1H17L11 7L13 9L21 1Z" fill="#826550"/>
</svg>

<svg width="21" height="20" fill="none" xmlns="http://www.w3.org/2000/svg"><path d="M8 4a4 4 0 1 0-4 4c.56.02 1.12-.12 1.6-.4L8 10l-2.4 2.4A2.93 2.93 0 0 0 4 12a4 4 0 1 0 4 4 2.93 2.93 0 0 0-.4-1.6L10 12l7 7h4L7.6 5.6c.28-.48.42-1.04.4-1.6ZM4 6a2 2 0 1 1 0-4 2 2 0 0 1 0 4Zm0 12a2 2 0 1 1 0-4 2 2 0 0 1 0 4Zm6-8.5a.5.5 0 1 1-.5.5.47.47 0 0 1 .5-.5ZM21 1h-4l-6 6 2 2 8-8Z" fill="#826550"/></svg>
